svg/u1f68d.svg

<svg viewBox="0 0 128 128" xmlns="http://www.w3.org/2000/svg">
  <path d="M25.59,19.75c0,0,0-3.55,0.25-4.19c0.25-0.63,4.31-6.09,4.82-6.6C31.17,8.45,46.9,8.33,63.27,8.2 c15.74-0.12,33.25,0.38,33.88,0.63c0.63,0.25,4.95,5.84,5.2,6.22c0.25,0.38,0.38,5.46,0.38,5.46L25.59,19.75z" fill="#40727B"/>
  <path d="M15.28,33.59c0,0-3.29-1.18-6.33,1.03c-3.42,2.48-2.83,6.33-2.83,6.33s-3.94-0.43-4.11,3 c-0.09,1.73-0.17,7.96,0,10.19c0.15,1.96,2.48,2.91,5.05,2.91c3.08,0,4.28-1.37,4.37-2.91c0.09-1.54,0.09-10.19,0.09-11.13 c0-1.46-0.94-1.71-0.94-1.71s-0.43-2.57,1.88-3.51c1.45-0.59,3.42-0.09,3.42-0.09L15.28,33.59z" fill="#858585"/>
  <path d="M112.19,74.68c0,0,2.74,0.53,4.45-0.51c1.97-1.2,1.63-3,1.63-3s-1.46-0.26-1.37-1.46 c0.11-1.54,0-11.47,0-12.07c0-0.6,0.68-1.71,2.14-1.88c1.46-0.17,4.71-0.07,5.91,0c1.46,0.09,1.88,2.57,1.88,3.94 s-0.26,8.9-0.34,9.59c-0.09,0.68-0.6,1.88-1.71,2.05c-1.18,0.18-2.23,0.17-2.23,0.17s0.43,4.02-2.23,6.16 c-2.65,2.14-8.05,1.37-8.05,1.37S112.27,74.51,112.19,74.68z" fill="#858585"/>
  <path d="M90.57,115.64c0,0,0,3.77,0.09,5.65c0.09,1.88,1.37,2.74,3.94,2.74c2.57,0,6.51-0.21,7.79-0.26 c2.4-0.09,3.51-1.88,4.11-3.08s0.6-5.74,0.6-5.74L90.57,115.64z" fill="#4D423D"/>
  <path d="M20.76,115.52c0,0-0.31,1.04,0.43,3.51c0.51,1.71,2.49,4.64,5.14,4.79c3,0.17,4.88,0.26,6.68,0.26 c3.12,0,4.54-1.54,4.54-3c0-1.46,0.26-6.16,0.26-6.16L20.76,115.52z" fill="#4D423D"/>
  <path d="M19.41,92.7l-5.06-12.16l-0.42-4.43c0,0,0.3-42.66,1.04-51.99c0.32-3.99,2.97-4.38,5.33-4.74 c3.85-0.59,21.33-2.22,41.03-2.37c19.7-0.15,41.48,1.19,46.37,2.07s4.44,4.44,4.89,7.55s1.19,20.29,1.19,29.33s0.3,19.85,0.3,19.85 l-2.96,13.63l-41.92,6.22L19.41,92.7z" fill="#6BA4AB"/>
  <path d="M19.85,33.16l88.14-0.74c0,0-0.3-9.33-7.85-10.52s-64.88-1.04-73.62,0.89 C18.96,24.45,19.85,33.16,19.85,33.16z" fill="#2F2F2F"/>
  <path d="M13.92,76.11l-0.15,26.01l1.76,9.93l95.75-0.11l2.76-11.36l0.01-24.76c0,0-3.21,5.79-8.73,6.89 s-21.95,3.2-39.38,2.87c-17.43-0.33-37.39,0.22-45.01-3.09C14.07,79.5,13.92,76.11,13.92,76.11z" fill="#C9C8C6"/>
  <path d="M16.76,92.42c-0.48,3.61,1.54,6.62,10.48,7.17c8.94,0.55,20.41,0.44,40.26,0.77 c19.86,0.33,31.96-1.05,37.28-1.54c5.96-0.55,8.38-3.42,7.94-6.84c-0.44-3.42-5.93-3.79-10.59-3.31 c-5.29,0.55-22.28,0.99-35.19,0.88c-12.91-0.11-34.2-0.66-37.17-0.77C26.8,88.67,17.64,85.8,16.76,92.42z" fill="#E3E4DE"/>
  <path d="M13.78,102.13c0,0,0.1,8.27,0.22,9.82c0.22,2.87,1.65,4.85,6.95,5.07s30.78,0,45.12,0.11 c14.34,0.11,39.49-0.33,42.8-0.44c3.31-0.11,4.54-2.54,4.74-5.07c0.23-2.8,0.44-11.03,0.44-11.03s-6.29,3.42-12.13,3.64 s-75.79,0.29-78.65,0.13C17.2,104.02,13.78,102.13,13.78,102.13z" fill="#474C4F"/>
  <path d="M19.62,106.43c-1.32-0.22-2.65-1.43-3.64-0.55c-1.11,0.99-0.44,3.42,2.43,3.75 c2.87,0.33,9.93,0.66,19.64,0.55c9.71-0.11,46.33-0.33,54.49-0.22c8.16,0.11,13.46-0.33,15.22-0.99c1.76-0.66,4.08-3.31,3.64-4.3 s-2.98,0.77-4.63,1.1c-1.65,0.33-8.94,0.77-16.44,0.66c-7.5-0.11-55.04,0.22-60.34,0.22S21.5,106.74,19.62,106.43z" fill="#5E6367"/>
  <path d="M40.56,88.67c-3.19-0.21-6.31,2-6.23,6.07c0.08,4.08,2.8,6.23,6.15,6.23s6.31-1.84,6.39-6.15 S44.16,88.91,40.56,88.67z" fill="#FFFFFF"/>
  <path d="M26.65,88.11c-2.8-0.16-5.91,0.88-6.23,5.36c-0.32,4.48,3.12,5.91,5.2,6.07s5.83-0.8,6.07-5.28 C31.91,90.17,29.38,88.27,26.65,88.11z" fill="#FF8C00"/>
  <path d="M88.99,88.91c-3.92,0.24-6.31,3.2-5.99,6.95s3.04,5.75,6.55,5.51c2.95-0.2,6.31-1.92,6.23-6.47 S92.19,88.71,88.99,88.91z" fill="#FFFFFF"/>
  <path d="M103.94,87.79c-2.97,0.09-6.27,2.6-5.83,6.71c0.4,3.76,3.68,5.2,6.31,5.04 c2.64-0.16,5.51-2.56,5.28-6.39C109.46,89.31,106.66,87.71,103.94,87.79z" fill="#FF8C00"/>
  <path d="M20.98,36.6c-1.72,0.16-2.81,0.45-3.26,2.9c-0.45,2.45-0.72,12.68-1,18.57 c-0.27,5.89-0.27,12.05,0,14.31c0.27,2.26,2.17,3.53,5.71,3.8c3.53,0.27,20.83,0.72,30.97,0.72s52.26-0.91,54.79-1.18 c2.54-0.27,3.08-2.17,3.26-4.08c0.18-1.9,0-7.79-0.36-16.03S110,38.86,109.82,37.5c-0.18-1.36-1.63-1.54-3.08-1.54 c-1.45,0-31.34,0-43.47,0.27C51.13,36.51,22.88,36.42,20.98,36.6z" fill="#464C52"/>
  <path d="M20.79,43.93c-0.31,1.63-0.72,6.34-0.82,11.5s-0.36,13.4-0.18,14.85c0.18,1.45,1.72,2.08,3.62,2.08 s20.38,0.27,37.04,0.45c13.22,0.14,42.75-0.54,45.19-0.82c1.66-0.18,2.26-1.54,2.26-3.08c0-1.54-0.27-10.05-0.36-14.49 c-0.09-4.44-0.82-9.87-1.09-11.86c-0.27-1.99-1.72-2.17-3.26-2.26c-1.54-0.09-24.63,0.25-40.39,0.36 c-12.59,0.09-32.6,0.45-38.31,0.72C21.25,41.55,21.07,42.48,20.79,43.93z" fill="#96C8ED"/>
  <path d="M24.78,66.57l23.46-0.09l0.12-25.63c0,0-5.21,0.03-12.85,0.22c-6,0.15-10.99,0.33-10.99,0.33 L24.78,66.57z" fill="#AFE3FB"/>
  <path d="M51.54,40.77l-0.04,25.8h23.64l0.09-25.99c0,0-6.08-0.02-11.7,0.05 C57.02,40.72,51.54,40.77,51.54,40.77z" fill="#AFE3FB"/>
  <path d="M78.97,40.53l0.05,21.16c0,0,1.18-0.61,2.17-0.82c1.72-0.36,3.98-0.36,3.98-0.36s0.1-4.89,0.1-6.34 s1.09-2.35,2.26-2.45c1.18-0.09,4.89-0.09,5.89,0c1,0.09,1.63,1.27,1.72,2.26s0.36,6.52,0.36,6.52l5.62-0.09l-0.12-20.1 c0,0-6.98,0-11.23,0.05C85.48,40.42,78.97,40.53,78.97,40.53z" fill="#AFE3FB"/>
</svg>

<svg viewBox="0 0 128 128" xmlns="http://www.w3.org/2000/svg">
  <defs/>
  <path d="M25.59,19.75 C25.59,19.75 25.59,16.2 25.84,15.56 C26.09,14.93 30.15,9.47 30.66,8.96 C31.17,8.45 46.9,8.33 63.27,8.2 C79.01,8.08 96.52,8.58 97.15,8.83 C97.78,9.08 102.1,14.67 102.35,15.05 C102.6,15.43 102.73,20.51 102.73,20.51 L25.59,19.75 Z" fill="#40727B"/>
  <path d="M15.28,33.59 C15.28,33.59 11.99,32.41 8.95,34.62 C5.53,37.1 6.12,40.95 6.12,40.95 C6.12,40.95 2.18,40.52 2.01,43.95 C1.92,45.68 1.84,51.91 2.01,54.14 C2.16,56.1 4.49,57.05 7.06,57.05 C10.14,57.05 11.34,55.68 11.43,54.14 C11.52,52.6 11.52,43.95 11.52,43.01 C11.52,41.55 10.58,41.3 10.58,41.3 C10.58,41.3 10.15,38.73 12.46,37.79 C13.91,37.2 15.88,37.7 15.88,37.7 L15.28,33.59 Z" fill="#858585"/>
  <path d="M112.19,74.68 C112.19,74.68 114.93,75.21 116.64,74.17 C118.61,72.97 118.27,71.17 118.27,71.17 C118.27,71.17 116.81,70.91 116.9,69.71 C117.01,68.17 116.9,58.24 116.9,57.64 C116.9,57.04 117.58,55.93 119.04,55.76 C120.5,55.59 123.75,55.69 124.95,55.76 C126.41,55.85 126.83,58.33 126.83,59.7 C126.83,61.07 126.57,68.6 126.49,69.29 C126.4,69.97 125.89,71.17 124.78,71.34 C123.6,71.52 122.55,71.51 122.55,71.51 C122.55,71.51 122.98,75.53 120.32,77.67 C117.67,79.81 112.27,79.04 112.27,79.04 C112.27,79.04 112.27,74.51 112.19,74.68 Z" fill="#858585"/>
  <path d="M90.57,115.64 C90.57,115.64 90.57,119.41 90.66,121.29 C90.75,123.17 92.03,124.03 94.6,124.03 C97.17,124.03 101.11,123.82 102.39,123.77 C104.79,123.68 105.9,121.89 106.5,120.69 C107.1,119.49 107.1,114.95 107.1,114.95 L90.57,115.64 Z" fill="#4D423D"/>
  <path d="M20.76,115.52 C20.76,115.52 20.45,116.56 21.19,119.03 C21.7,120.74 23.68,123.67 26.33,123.82 C29.33,123.99 31.21,124.08 33.01,124.08 C36.13,124.08 37.55,122.54 37.55,121.08 C37.55,119.62 37.81,114.92 37.81,114.92 L20.76,115.52 Z" fill="#4D423D"/>
  <path d="M19.41,92.7 L14.35,80.54 L13.93,76.11 C13.93,76.11 14.23,33.45 14.97,24.12 C15.29,20.13 17.94,19.74 20.3,19.38 C24.15,18.79 41.63,17.16 61.33,17.01 C81.03,16.86 102.81,18.2 107.7,19.08 C112.59,19.96 112.14,23.52 112.59,26.63 C113.04,29.74 113.78,46.92 113.78,55.96 C113.78,65 114.08,75.81 114.08,75.81 L111.12,89.44 L69.2,95.66 L19.41,92.7 Z" fill="#6BA4AB"/>
  <path d="M19.85,33.16 L107.99,32.42 C107.99,32.42 107.69,23.09 100.14,21.9 C92.59,20.71 35.26,20.86 26.52,22.79 C18.96,24.45 19.85,33.16 19.85,33.16 Z" fill="#2F2F2F"/>
  <path d="M13.92,76.11 L13.77,102.12 L15.53,112.05 L111.28,111.94 L114.04,100.58 L114.05,75.82 C114.05,75.82 110.84,81.61 105.32,82.71 C99.8,83.81 83.37,85.91 65.94,85.58 C48.51,85.25 28.55,85.8 20.93,82.49 C14.07,79.5 13.92,76.11 13.92,76.11 Z" fill="#C9C8C6"/>
  <path d="M16.76,92.42 C16.28,96.03 18.3,99.04 27.24,99.59 C36.18,100.14 47.65,100.03 67.5,100.36 C87.36,100.69 99.46,99.31 104.78,98.82 C110.74,98.27 113.16,95.4 112.72,91.98 C112.28,88.56 106.79,88.19 102.13,88.67 C96.84,89.22 79.85,89.66 66.94,89.55 C54.03,89.44 32.74,88.89 29.77,88.78 C26.8,88.67 17.64,85.8 16.76,92.42 Z" fill="#E3E4DE"/>
  <path d="M13.78,102.13 C13.78,102.13 13.88,110.4 14,111.95 C14.22,114.82 15.65,116.8 20.95,117.02 C26.25,117.24 51.73,117.02 66.07,117.13 C80.41,117.24 105.56,116.8 108.87,116.69 C112.18,116.58 113.41,114.15 113.61,111.62 C113.84,108.82 114.05,100.59 114.05,100.59 C114.05,100.59 107.76,104.01 101.92,104.23 C96.08,104.45 26.13,104.52 23.27,104.36 C17.2,104.02 13.78,102.13 13.78,102.13 Z" fill="#474C4F"/>
  <path d="M19.62,106.43 C18.3,106.21 16.97,105 15.98,105.88 C14.87,106.87 15.54,109.3 18.41,109.63 C21.28,109.96 28.34,110.29 38.05,110.18 C47.76,110.07 84.38,109.85 92.54,109.96 C100.7,110.07 106,109.63 107.76,108.97 C109.52,108.31 111.84,105.66 111.4,104.67 C110.96,103.68 108.42,105.44 106.77,105.77 C105.12,106.1 97.83,106.54 90.33,106.43 C82.83,106.32 35.29,106.65 29.99,106.65 C24.69,106.65 21.5,106.74 19.62,106.43 Z" fill="#5E6367"/>
  <path d="M40.56,88.67 C37.37,88.46 34.25,90.67 34.33,94.74 C34.41,98.82 37.13,100.97 40.48,100.97 C43.83,100.97 46.79,99.13 46.87,94.82 C46.95,90.51 44.16,88.91 40.56,88.67 Z" fill="#FFFFFF"/>
  <path d="M26.65,88.11 C23.85,87.95 20.74,88.99 20.42,93.47 C20.1,97.95 23.54,99.38 25.62,99.54 C27.7,99.7 31.45,98.74 31.69,94.26 C31.91,90.17 29.38,88.27 26.65,88.11 Z" fill="#FF8C00"/>
  <path d="M88.99,88.91 C85.07,89.15 82.68,92.11 83,95.86 C83.32,99.61 86.04,101.61 89.55,101.37 C92.5,101.17 95.86,99.45 95.78,94.9 C95.7,90.35 92.19,88.71 88.99,88.91 Z" fill="#FFFFFF"/>
  <path d="M103.94,87.79 C100.97,87.88 97.67,90.39 98.11,94.5 C98.51,98.26 101.79,99.7 104.42,99.54 C107.06,99.38 109.93,96.98 109.7,93.15 C109.46,89.31 106.66,87.71 103.94,87.79 Z" fill="#FF8C00"/>
  <path d="M20.98,36.6 C19.26,36.76 18.17,37.05 17.72,39.5 C17.27,41.95 17,52.18 16.72,58.07 C16.45,63.96 16.45,70.12 16.72,72.38 C16.99,74.64 18.89,75.91 22.43,76.18 C25.96,76.45 43.26,76.9 53.4,76.9 C63.54,76.9 105.66,75.99 108.19,75.72 C110.73,75.45 111.27,73.55 111.45,71.64 C111.63,69.74 111.45,63.85 111.09,55.61 C110.73,47.37 110,38.86 109.82,37.5 C109.64,36.14 108.19,35.96 106.74,35.96 C105.29,35.96 75.4,35.96 63.27,36.23 C51.13,36.51 22.88,36.42 20.98,36.6 Z" fill="#464C52"/>
  <path d="M20.79,43.93 C20.48,45.56 20.07,50.27 19.97,55.43 C19.87,60.59 19.61,68.83 19.79,70.28 C19.97,71.73 21.51,72.36 23.41,72.36 C25.31,72.36 43.79,72.63 60.45,72.81 C73.67,72.95 103.2,72.27 105.64,71.99 C107.3,71.81 107.9,70.45 107.9,68.91 C107.9,67.37 107.63,58.86 107.54,54.42 C107.45,49.98 106.72,44.55 106.45,42.56 C106.18,40.57 104.73,40.39 103.19,40.3 C101.65,40.21 78.56,40.55 62.8,40.66 C50.21,40.75 30.2,41.11 24.49,41.38 C21.25,41.55 21.07,42.48 20.79,43.93 Z" fill="#96C8ED"/>
  <path d="M24.78,66.57 L48.24,66.48 L48.36,40.85 C48.36,40.85 43.15,40.88 35.51,41.07 C29.51,41.22 24.52,41.4 24.52,41.4 L24.78,66.57 Z" fill="#AFE3FB"/>
  <path d="M51.54,40.77 L51.5,66.57 L75.14,66.57 L75.23,40.58 C75.23,40.58 69.15,40.56 63.53,40.63 C57.02,40.72 51.54,40.77 51.54,40.77 Z" fill="#AFE3FB"/>
  <path d="M78.97,40.53 L79.02,61.69 C79.02,61.69 80.2,61.08 81.19,60.87 C82.91,60.51 85.17,60.51 85.17,60.51 C85.17,60.51 85.27,55.62 85.27,54.17 C85.27,52.72 86.36,51.82 87.53,51.72 C88.71,51.63 92.42,51.63 93.42,51.72 C94.42,51.81 95.05,52.99 95.14,53.98 C95.23,54.97 95.5,60.5 95.5,60.5 L101.12,60.41 L101,40.31 C101,40.31 94.02,40.31 89.77,40.36 C85.48,40.42 78.97,40.53 78.97,40.53 Z" fill="#AFE3FB"/>
</svg>
